!! 00000] TT[WS
!!!OTL: Yiduidui rengxi wo danguagua
!!!ARE: Asia, China, Shanxi Hequ
!! Ethnic Group: Han
!! WII, 9
!!!SCT: J0411
!!!YEM: Copyright 1995, estate of Helmut Schaffrath.
**kern
*ICvox
*Ivox
*M2/4
*k[]
*C:
{8.ee
16ee
8dd
8gg
=1
4cc
8a
8g
=2
4e
8g
8e
=3
2dd}
=4
{8.ee
16ee
8dd
8gg
=5
4cc
8a
8g
=6
4e
4dd
=7
8dd
4cc
8a
=8
2g}
==
!!!AGN: Shange, Shanqu. Qingge, Aisu
!!!ONB: ESAC (Essen Associative Code) Database: CHINA
!!!AMT: simple duple
!!!AIN: vox
!!!EED: Helmut Schaffrath
!!!EEV: 1.0
*-
